!!! OTL: Berkowitz514
!!! Chapter: 1
!!! Section: IV
!!! Page: 129
!!! Mode: 
!!! Encoder: DJB
**kern
*staff1
*I"Piano
=1-
*clefG2
*k[b-]
*F:
*M3/4
8f/L
8a/J
4.cc\
8dd\
=2
2e/
4f/
=3
8f/L
8a-/J
4.cc\
8dd-\
=4
2e/
4f/
=5
8a-\L
8cc\J
4.ee-\
8ff\
=6
2g/
4a-/
=7
4.dd-\
8cc\
8b-/L
8a-/J
=8
4g/
4r
4dd-\
=9
4.cc\
8b-\
8a/L
8g/J
=10
2.f/
==
*-
